Sources/Montage/Asset/Icon.xcassets/bell.imageset/bell.svg

<svg viewBox="0 0 24 24" xmlns="http://www.w3.org/2000/svg">
<path fill-rule="evenodd" d="M11.9996 2.1001c-2.22523 0-4.05463.78779-5.31212 2.27433C5.44735 5.84044 4.84961 7.8832 4.84961 10.2501v.75c0 2.4651-.68324 3.9248-1.65636 4.8681-.38154.3699-.42114.8817-.28476 1.2582.1387.383.51881.7737 1.09067.7737H20c.5719 0 .952-.3907 1.0907-.7737.1364-.3765.0968-.8883-.2847-1.2582-.9732-.9433-1.6564-2.403-1.6564-4.8681v-.75c0-2.3669-.5977-4.40966-1.8379-5.87567-1.2575-1.48654-3.0869-2.27433-5.3121-2.27433Zm-5.34999 8.15c0-2.08488.52725-3.66712 1.41212-4.71316.86751-1.02552 2.16307-1.63684 3.93787-1.63684 1.7748 0 3.0704.61132 3.9379 1.63683.8848 1.04605 1.4121 2.62829 1.4121 4.71317v.75c0 2.1627.4681 3.8272 1.3187 5.1H5.33089c.85058-1.2728 1.31872-2.9373 1.31872-5.1v-.75Z" clip-rule="evenodd"/><path d="M9.09973 20.1001v1.8h5.79997v-1.8H9.09973Z"/>
</svg>

<svg viewBox="0 0 24 24" xmlns="http://www.w3.org/2000/svg">
<path fill-rule="evenodd" clip-rule="evenodd" d="M11.9996 2.1001C9.77437 2.1001 7.94497 2.88789 6.68748 4.37443C5.44735 5.84044 4.84961 7.8832 4.84961 10.2501L4.84961 11.0001C4.84961 13.4652 4.16637 14.9249 3.19325 15.8682C2.81171 16.2381 2.77211 16.7499 2.90849 17.1264C3.04719 17.5094 3.4273 17.9001 3.99916 17.9001H20C20.5719 17.9001 20.952 17.5094 21.0907 17.1264C21.2271 16.7499 21.1875 16.2381 20.806 15.8682C19.8328 14.9249 19.1496 13.4652 19.1496 11.0001L19.1496 10.2501C19.1496 7.8832 18.5519 5.84044 17.3117 4.37443C16.0542 2.88789 14.2248 2.1001 11.9996 2.1001ZM6.64961 10.2501C6.64961 8.16522 7.17686 6.58298 8.06173 5.53694C8.92924 4.51142 10.2248 3.9001 11.9996 3.9001C13.7744 3.9001 15.07 4.51142 15.9375 5.53693C16.8223 6.58298 17.3496 8.16522 17.3496 10.2501L17.3496 11.0001C17.3496 13.1628 17.8177 14.8273 18.6683 16.1001H5.33089C6.18147 14.8273 6.64961 13.1628 6.64961 11.0001L6.64961 10.2501Z"/>
<path d="M9.09973 20.1001V21.9001H14.8997V20.1001H9.09973Z"/>
</svg>
